icons/HSB-Collections/48x48/apps/deepin-feedback.svg

<svg xmlns="http://www.w3.org/2000/svg" width="48" height="48" version="1.1">
 <path style="opacity:0.2;fill-rule:evenodd" d="M 24,43 C 35.5983,43 45,35.045372 45,23.9995 45,12.954628 35.5983,5.0010002 24,5.0000001 c -11.5983,0 -21,7.9546279 -21,18.9994999 0,6.048485 2.8190296,11.170084 7.274102,14.56629 0.266655,0.203278 -0.3385391,4.182612 -2.065489,5.498127 -0.42525,0.323536 -0.1512,0.988466 0.3801,0.932793 2.031401,-0.212953 5.014309,-0.974972 7.082473,-3.469345 C 18.224696,42.482198 21.040855,43 24,43 Z"/>
 <path style="fill:#57c93f;fill-rule:evenodd" d="M 24,42 C 35.5983,42 45,34.045372 45,22.9995 45,11.954628 35.5983,4.0010001 24,4 12.4017,4 3,11.954628 3,22.9995 c 0,6.048485 2.8190296,11.170084 7.274102,14.56629 0.266655,0.203278 -0.3385391,4.182612 -2.065489,5.498127 -0.42525,0.323536 -0.1512,0.988466 0.3801,0.932793 2.031401,-0.212953 5.014309,-0.974972 7.082473,-3.469345 C 18.224696,41.482198 21.040855,42 24,42 Z"/>
 <rect style="opacity:0.2" width="22" height="2" x="13" y="17" rx="1"/>
 <rect style="fill:#ffffff" width="22" height="2" x="13" y="16" rx="1"/>
 <rect style="opacity:0.2" width="22" height="2" x="13" y="23" rx="1"/>
 <rect style="fill:#ffffff" width="22" height="2" x="13" y="22" rx="1"/>
 <rect style="opacity:0.2" width="22" height="2" x="13" y="29" rx="1"/>
 <rect style="fill:#ffffff" width="22" height="2" x="13" y="28" rx="1"/>
 <path style="fill:#ffffff;fill-rule:evenodd;opacity:0.2" d="M 24 4 C 12.4017 4 3 11.955128 3 23 C 3 23.159755 3.0097605 23.316162 3.0136719 23.474609 C 3.3075598 12.704664 12.587055 5 24 5 C 35.421897 5.0009849 44.70633 12.716823 44.986328 23.5 C 44.990669 23.333132 45 23.168321 45 23 C 45 11.955128 35.5983 4.0010001 24 4 z M 10.269531 38.5625 C 10.083957 39.878025 9.433599 42.131595 8.2089844 43.064453 C 7.8615412 43.328793 7.9849922 43.814166 8.3300781 43.955078 C 9.9612682 42.548256 10.533561 38.764705 10.273438 38.566406 C 10.271977 38.565293 10.270992 38.563614 10.269531 38.5625 z"/>
</svg>

<svg width="48" height="48" version="1.1" xmlns="http://www.w3.org/2000/svg">
 <path d="m24 43c11.5983 0 21-7.954628 21-19.0005 0-11.044872-9.4017-18.9985-21-18.9995-11.5983 0-21 7.9546279-21 18.9995 0 6.048485 2.8190296 11.170084 7.274102 14.56629 0.266655 0.203278-0.3385391 4.182612-2.065489 5.498127-0.42525 0.323536-0.1512 0.988466 0.3801 0.932793 2.031401-0.212953 5.014309-0.974972 7.082473-3.469345 2.55351 0.954833 5.369669 1.472635 8.328814 1.472635z" style="fill-rule:evenodd;opacity:.2"/>
 <path d="m24 42c11.5983 0 21-7.954628 21-19.0005 0-11.044872-9.4017-18.9985-21-18.9995-11.5983 0-21 7.954628-21 18.9995 0 6.048485 2.8190296 11.170084 7.274102 14.56629 0.266655 0.203278-0.3385391 4.182612-2.065489 5.498127-0.42525 0.323536-0.1512 0.988466 0.3801 0.932793 2.031401-0.212953 5.014309-0.974972 7.082473-3.469345 2.55351 0.954833 5.369669 1.472635 8.328814 1.472635z" style="fill-rule:evenodd;fill:#57c93f"/>
 <rect x="13" y="17" width="22" height="3" rx="1.5" ry="1.5" style="opacity:.2"/>
 <rect x="13" y="23" width="22" height="3" rx="1.5" ry="1.5" style="opacity:.2"/>
 <rect x="13" y="29" width="22" height="3" rx="1.5" ry="1.5" style="opacity:.2"/>
 <rect x="13" y="16" width="22" height="3" rx="1.5" ry="1.5" style="fill:#e4e4e4"/>
 <rect x="13" y="22" width="22" height="3" rx="1.5" ry="1.5" style="fill:#e4e4e4"/>
 <rect x="13" y="28" width="22" height="3" rx="1.5" ry="1.5" style="fill:#e4e4e4"/>
 <path d="M 24,4 C 12.4017,4 3,11.955128 3,23 3,23.159755 3.00976,23.316162 3.013672,23.474609 3.3075598,12.704664 12.587055,5 24,5 35.421897,5.0009849 44.70633,12.716823 44.986328,23.5 44.990669,23.333132 45,23.168321 45,23 45,11.955128 35.5983,4.0010001 24,4 Z M 10.269531,38.5625 c -0.185574,1.315525 -0.835932,3.569095 -2.0605466,4.501953 -0.3474432,0.26434 -0.2239922,0.749713 0.1210937,0.890625 1.6311901,-1.406822 2.2034829,-5.190373 1.9433599,-5.388672 -0.0015,-0.0011 -0.0024,-0.0028 -0.0039,-0.0039 z" style="fill-rule:evenodd;fill:#ffffff;opacity:.2"/>
</svg>
